public/doodles/dots.svg

<svg class="w-10 h-10" viewBox="0 0 113 114" fill="none" xmlns="http://www.w3.org/2000/svg">
                      <path d="M34.11 22.5864C36.41 24.5864 39.51 20.9864 37.21 18.9864C34.81 16.9864 31.71 20.5864 34.11 22.5864Z" fill="currentColor"></path>
                      <path d="M34.11 22.5864C36.41 24.5864 39.51 20.9864 37.21 18.9864C34.81 16.9864 31.71 20.5864 34.11 22.5864Z" fill="currentColor" fill-opacity="0.2"></path>
                      <path d="M0.809405 33.7856C3.10941 35.7856 6.2094 32.1856 3.9094 30.1856C1.60941 28.1856 -1.49059 31.7856 0.809405 33.7856Z" fill="currentColor"></path>
                      <path d="M0.809405 33.7856C3.10941 35.7856 6.2094 32.1856 3.9094 30.1856C1.60941 28.1856 -1.49059 31.7856 0.809405 33.7856Z" fill="currentColor" fill-opacity="0.2"></path>
                      <path d="M28.2098 44.8863C30.5098 46.8863 33.6098 43.2863 31.3098 41.2863C29.0098 39.1863 25.9098 42.8863 28.2098 44.8863Z" fill="currentColor"></path>
                      <path d="M28.2098 44.8863C30.5098 46.8863 33.6098 43.2863 31.3098 41.2863C29.0098 39.1863 25.9098 42.8863 28.2098 44.8863Z" fill="currentColor" fill-opacity="0.2"></path>
                      <path d="M56.5096 25.0864C58.8096 27.0864 61.9096 23.4864 59.6096 21.4864C57.3096 19.4864 54.2096 23.0864 56.5096 25.0864Z" fill="currentColor"></path>
                      <path d="M56.5096 25.0864C58.8096 27.0864 61.9096 23.4864 59.6096 21.4864C57.3096 19.4864 54.2096 23.0864 56.5096 25.0864Z" fill="currentColor" fill-opacity="0.2"></path>
                      <path d="M9.40984 4.18601C11.7098 6.18601 14.8098 2.58602 12.5098 0.586018C10.1098 -1.41398 7.00984 2.18601 9.40984 4.18601Z" fill="currentColor"></path>
                      <path d="M9.40984 4.18601C11.7098 6.18601 14.8098 2.58602 12.5098 0.586018C10.1098 -1.41398 7.00984 2.18601 9.40984 4.18601Z" fill="currentColor" fill-opacity="0.2"></path>
                      <path d="M57.6091 61.9859C59.9091 63.9859 63.0091 60.3859 60.7091 58.3859C58.3091 56.2859 55.2091 59.9859 57.6091 61.9859Z" fill="currentColor"></path>
                      <path d="M57.6091 61.9859C59.9091 63.9859 63.0091 60.3859 60.7091 58.3859C58.3091 56.2859 55.2091 59.9859 57.6091 61.9859Z" fill="currentColor" fill-opacity="0.2"></path>
                      <path d="M25.1091 82.4858C27.4091 84.4858 30.5091 80.8858 28.2091 78.8858C25.8091 76.8858 22.7091 80.4858 25.1091 82.4858Z" fill="currentColor"></path>
                      <path d="M25.1091 82.4858C27.4091 84.4858 30.5091 80.8858 28.2091 78.8858C25.8091 76.8858 22.7091 80.4858 25.1091 82.4858Z" fill="currentColor" fill-opacity="0.2"></path>
                      <path d="M55.3094 99.5864C57.6094 101.586 60.7094 97.9865 58.4094 95.9865C56.1094 93.8865 53.0094 97.5864 55.3094 99.5864Z" fill="currentColor"></path>
                      <path d="M55.3094 99.5864C57.6094 101.586 60.7094 97.9865 58.4094 95.9865C56.1094 93.8865 53.0094 97.5864 55.3094 99.5864Z" fill="currentColor" fill-opacity="0.2"></path>
                      <path d="M86.8094 90.3862C89.1094 92.3862 92.2094 88.7862 89.9094 86.7862C87.6094 84.7862 84.5094 88.3862 86.8094 90.3862Z" fill="currentColor"></path>
                      <path d="M86.8094 90.3862C89.1094 92.3862 92.2094 88.7862 89.9094 86.7862C87.6094 84.7862 84.5094 88.3862 86.8094 90.3862Z" fill="currentColor" fill-opacity="0.2"></path>
                      <path d="M108.309 80.6861C110.609 82.6861 113.709 79.0861 111.409 77.0861C109.109 74.9861 106.009 78.6861 108.309 80.6861Z" fill="currentColor"></path>
                      <path d="M108.309 80.6861C110.609 82.6861 113.709 79.0861 111.409 77.0861C109.109 74.9861 106.009 78.6861 108.309 80.6861Z" fill="currentColor" fill-opacity="0.2"></path>
                      <path d="M54.11 83.5864C56.41 85.5864 59.51 81.9865 57.21 79.9865C54.81 77.8865 51.71 81.5864 54.11 83.5864Z" fill="currentColor"></path>
                      <path d="M54.11 83.5864C56.41 85.5864 59.51 81.9865 57.21 79.9865C54.81 77.8865 51.71 81.5864 54.11 83.5864Z" fill="currentColor" fill-opacity="0.2"></path>
                      <path d="M82.0094 112.586C84.3094 114.586 87.4094 110.986 85.1094 108.986C82.7094 106.986 79.6094 110.586 82.0094 112.586Z" fill="currentColor"></path>
                      <path d="M82.0094 112.586C84.3094 114.586 87.4094 110.986 85.1094 108.986C82.7094 106.986 79.6094 110.586 82.0094 112.586Z" fill="currentColor" fill-opacity="0.2"></path>
                      <path d="M39.7098 64.2856C42.0098 66.2856 45.1098 62.6856 42.8098 60.6856C40.5098 58.6856 37.4098 62.2856 39.7098 64.2856Z" fill="currentColor"></path>
                      <path d="M39.7098 64.2856C42.0098 66.2856 45.1098 62.6856 42.8098 60.6856C40.5098 58.6856 37.4098 62.2856 39.7098 64.2856Z" fill="currentColor" fill-opacity="0.2"></path>
                      <path d="M84.2098 57.4859C86.5098 59.4859 89.6098 55.8859 87.3098 53.8859C85.0098 51.7859 81.9098 55.4859 84.2098 57.4859Z" fill="currentColor"></path>
                      <path d="M84.2098 57.4859C86.5098 59.4859 89.6098 55.8859 87.3098 53.8859C85.0098 51.7859 81.9098 55.4859 84.2098 57.4859Z" fill="currentColor" fill-opacity="0.2"></path>
                      <path d="M36.7096 102.886C39.0096 104.886 42.1096 101.286 39.8096 99.2862C37.4096 97.2862 34.3096 100.886 36.7096 102.886Z" fill="currentColor"></path>
                      <path d="M36.7096 102.886C39.0096 104.886 42.1096 101.286 39.8096 99.2862C37.4096 97.2862 34.3096 100.886 36.7096 102.886Z" fill="currentColor" fill-opacity="0.2"></path>
                      <path d="M76.2098 28.686C78.5098 30.686 81.6098 27.086 79.3098 25.086C77.0098 23.086 73.9098 26.686 76.2098 28.686Z" fill="currentColor"></path>
                      <path d="M76.2098 28.686C78.5098 30.686 81.6098 27.086 79.3098 25.086C77.0098 23.086 73.9098 26.686 76.2098 28.686Z" fill="currentColor" fill-opacity="0.2"></path>
                      <path d="M70.2096 5.98581C72.5096 7.98581 75.6096 4.38582 73.3096 2.38582C70.9096 0.385823 67.8096 3.98581 70.2096 5.98581Z" fill="currentColor"></path>
                      <path d="M70.2096 5.98581C72.5096 7.98581 75.6096 4.38582 73.3096 2.38582C70.9096 0.385823 67.8096 3.98581 70.2096 5.98581Z" fill="currentColor" fill-opacity="0.2"></path>
                      <path d="M100.309 39.5864C102.609 41.5864 105.709 37.9864 103.409 35.9864C101.109 33.9864 98.0094 37.5864 100.309 39.5864Z" fill="currentColor"></path>
                      <path d="M100.309 39.5864C102.609 41.5864 105.709 37.9864 103.409 35.9864C101.109 33.9864 98.0094 37.5864 100.309 39.5864Z" fill="currentColor" fill-opacity="0.2"></path>
                      <path d="M70.5096 81.7857C72.8096 83.7857 75.9096 80.1857 73.6096 78.1857C71.3096 76.0857 68.2096 79.7857 70.5096 81.7857Z" fill="currentColor"></path>
                      <path d="M70.5096 81.7857C72.8096 83.7857 75.9096 80.1857 73.6096 78.1857C71.3096 76.0857 68.2096 79.7857 70.5096 81.7857Z" fill="currentColor" fill-opacity="0.2"></path>
                      <path d="M46.5098 41.9858C48.8098 43.9858 51.9098 40.3858 49.6098 38.3858C47.3098 36.3858 44.1098 39.9858 46.5098 41.9858Z" fill="currentColor"></path>
                      <path d="M46.5098 41.9858C48.8098 43.9858 51.9098 40.3858 49.6098 38.3858C47.3098 36.3858 44.1098 39.9858 46.5098 41.9858Z" fill="currentColor" fill-opacity="0.2"></path>
                      <path d="M66.2098 45.5864C68.5098 47.5864 71.6098 43.9864 69.3098 41.9864C67.0098 39.9864 63.9098 43.5864 66.2098 45.5864Z" fill="currentColor"></path>
                      <path d="M66.2098 45.5864C68.5098 47.5864 71.6098 43.9864 69.3098 41.9864C67.0098 39.9864 63.9098 43.5864 66.2098 45.5864Z" fill="currentColor" fill-opacity="0.2"></path>
                    </svg>

<svg class="w-10 h-10" viewBox="0 0 113 114" fill="none" xmlns="http://www.w3.org/2000/svg">
    <path d="M34.11 22.586c2.3 2 5.4-1.6 3.1-3.6-2.4-2-5.5 1.6-3.1 3.6Z" fill="currentColor"/>
    <path d="M34.11 22.586c2.3 2 5.4-1.6 3.1-3.6-2.4-2-5.5 1.6-3.1 3.6Z" fill="currentColor" fill-opacity=".2"/>
    <path d="M.81 33.786c2.3 2 5.4-1.6 3.1-3.6-2.3-2-5.4 1.6-3.1 3.6Z" fill="currentColor"/>
    <path d="M.81 33.786c2.3 2 5.4-1.6 3.1-3.6-2.3-2-5.4 1.6-3.1 3.6Z" fill="currentColor" fill-opacity=".2"/>
    <path d="M28.21 44.886c2.3 2 5.4-1.6 3.1-3.6-2.3-2.1-5.4 1.6-3.1 3.6Z" fill="currentColor"/>
    <path d="M28.21 44.886c2.3 2 5.4-1.6 3.1-3.6-2.3-2.1-5.4 1.6-3.1 3.6Z" fill="currentColor" fill-opacity=".2"/>
    <path d="M56.51 25.086c2.3 2 5.4-1.6 3.1-3.6-2.3-2-5.4 1.6-3.1 3.6Z" fill="currentColor"/>
    <path d="M56.51 25.086c2.3 2 5.4-1.6 3.1-3.6-2.3-2-5.4 1.6-3.1 3.6Z" fill="currentColor" fill-opacity=".2"/>
    <path d="M9.41 4.186c2.3 2 5.4-1.6 3.1-3.6-2.4-2-5.5 1.6-3.1 3.6Z" fill="currentColor"/>
    <path d="M9.41 4.186c2.3 2 5.4-1.6 3.1-3.6-2.4-2-5.5 1.6-3.1 3.6Z" fill="currentColor" fill-opacity=".2"/>
    <path d="M57.61 61.986c2.3 2 5.4-1.6 3.1-3.6-2.4-2.1-5.5 1.6-3.1 3.6Z" fill="currentColor"/>
    <path d="M57.61 61.986c2.3 2 5.4-1.6 3.1-3.6-2.4-2.1-5.5 1.6-3.1 3.6Z" fill="currentColor" fill-opacity=".2"/>
    <path d="M25.11 82.486c2.3 2 5.4-1.6 3.1-3.6-2.4-2-5.5 1.6-3.1 3.6Z" fill="currentColor"/>
    <path d="M25.11 82.486c2.3 2 5.4-1.6 3.1-3.6-2.4-2-5.5 1.6-3.1 3.6Z" fill="currentColor" fill-opacity=".2"/>
    <path d="M55.31 99.586c2.3 2 5.4-1.6 3.1-3.6-2.3-2.1-5.4 1.6-3.1 3.6Z" fill="currentColor"/>
    <path d="M55.31 99.586c2.3 2 5.4-1.6 3.1-3.6-2.3-2.1-5.4 1.6-3.1 3.6Z" fill="currentColor" fill-opacity=".2"/>
    <path d="M86.81 90.386c2.3 2 5.4-1.6 3.1-3.6-2.3-2-5.4 1.6-3.1 3.6Z" fill="currentColor"/>
    <path d="M86.81 90.386c2.3 2 5.4-1.6 3.1-3.6-2.3-2-5.4 1.6-3.1 3.6Z" fill="currentColor" fill-opacity=".2"/>
    <path d="M108.309 80.686c2.3 2 5.4-1.6 3.1-3.6-2.3-2.1-5.4 1.6-3.1 3.6Z" fill="currentColor"/>
    <path d="M108.309 80.686c2.3 2 5.4-1.6 3.1-3.6-2.3-2.1-5.4 1.6-3.1 3.6Z" fill="currentColor" fill-opacity=".2"/>
    <path d="M54.11 83.586c2.3 2 5.4-1.6 3.1-3.6-2.4-2.1-5.5 1.6-3.1 3.6Z" fill="currentColor"/>
    <path d="M54.11 83.586c2.3 2 5.4-1.6 3.1-3.6-2.4-2.1-5.5 1.6-3.1 3.6Z" fill="currentColor" fill-opacity=".2"/>
    <path d="M82.01 112.586c2.3 2 5.4-1.6 3.1-3.6-2.4-2-5.5 1.6-3.1 3.6Z" fill="currentColor"/>
    <path d="M82.01 112.586c2.3 2 5.4-1.6 3.1-3.6-2.4-2-5.5 1.6-3.1 3.6Z" fill="currentColor" fill-opacity=".2"/>
    <path d="M39.71 64.286c2.3 2 5.4-1.6 3.1-3.6-2.3-2-5.4 1.6-3.1 3.6Z" fill="currentColor"/>
    <path d="M39.71 64.286c2.3 2 5.4-1.6 3.1-3.6-2.3-2-5.4 1.6-3.1 3.6Z" fill="currentColor" fill-opacity=".2"/>
    <path d="M84.21 57.486c2.3 2 5.4-1.6 3.1-3.6-2.3-2.1-5.4 1.6-3.1 3.6Z" fill="currentColor"/>
    <path d="M84.21 57.486c2.3 2 5.4-1.6 3.1-3.6-2.3-2.1-5.4 1.6-3.1 3.6Z" fill="currentColor" fill-opacity=".2"/>
    <path d="M36.71 102.886c2.3 2 5.4-1.6 3.1-3.6-2.4-2-5.5 1.6-3.1 3.6Z" fill="currentColor"/>
    <path d="M36.71 102.886c2.3 2 5.4-1.6 3.1-3.6-2.4-2-5.5 1.6-3.1 3.6Z" fill="currentColor" fill-opacity=".2"/>
    <path d="M76.21 28.686c2.3 2 5.4-1.6 3.1-3.6-2.3-2-5.4 1.6-3.1 3.6Z" fill="currentColor"/>
    <path d="M76.21 28.686c2.3 2 5.4-1.6 3.1-3.6-2.3-2-5.4 1.6-3.1 3.6Z" fill="currentColor" fill-opacity=".2"/>
    <path d="M70.21 5.986c2.3 2 5.4-1.6 3.1-3.6-2.4-2-5.5 1.6-3.1 3.6Z" fill="currentColor"/>
    <path d="M70.21 5.986c2.3 2 5.4-1.6 3.1-3.6-2.4-2-5.5 1.6-3.1 3.6Z" fill="currentColor" fill-opacity=".2"/>
    <path d="M100.309 39.586c2.3 2 5.4-1.6 3.1-3.6-2.3-2-5.4 1.6-3.1 3.6Z" fill="currentColor"/>
    <path d="M100.309 39.586c2.3 2 5.4-1.6 3.1-3.6-2.3-2-5.4 1.6-3.1 3.6Z" fill="currentColor" fill-opacity=".2"/>
    <path d="M70.51 81.786c2.3 2 5.4-1.6 3.1-3.6-2.3-2.1-5.4 1.6-3.1 3.6Z" fill="currentColor"/>
    <path d="M70.51 81.786c2.3 2 5.4-1.6 3.1-3.6-2.3-2.1-5.4 1.6-3.1 3.6Z" fill="currentColor" fill-opacity=".2"/>
    <path d="M46.51 41.986c2.3 2 5.4-1.6 3.1-3.6-2.3-2-5.5 1.6-3.1 3.6Z" fill="currentColor"/>
    <path d="M46.51 41.986c2.3 2 5.4-1.6 3.1-3.6-2.3-2-5.5 1.6-3.1 3.6Z" fill="currentColor" fill-opacity=".2"/>
    <path d="M66.21 45.586c2.3 2 5.4-1.6 3.1-3.6-2.3-2-5.4 1.6-3.1 3.6Z" fill="currentColor"/>
    <path d="M66.21 45.586c2.3 2 5.4-1.6 3.1-3.6-2.3-2-5.4 1.6-3.1 3.6Z" fill="currentColor" fill-opacity=".2"/>
</svg>
